_site/images/pro/feature-actions.svg

<svg height="80" viewBox="0 0 80 80" width="80" xmlns="http://www.w3.org/2000/svg"><g fill="none" fill-rule="nonzero"><path d="m19.0004291 24.0000007h1.5c3.5898509 0 6.5-2.9101491 6.5-6.5s-2.9101491-6.5-6.5-6.5h-5c-3.2972227-.0015416-6.07275759 2.466994-6.45596101 5.7418735-.38320343 3.2748794 1.74745421 6.3175033 4.95596101 7.0772165v3.18091zm9.77393-4.583c-.8945833 3.8494923-4.3218639 6.5763451-8.27393 6.583h-.946l-3.89527 2.33716c1.0846751 2.2390949 3.353286 3.6616552 5.84127 3.66284h1.5l5 3v-3.18091c2.7837441-.6573908 4.8092597-3.0592075 4.9874057-5.913968.178146-2.8547606-1.5330564-5.4897602-4.2134757-6.488132z" fill="#74da63"/><path d="m28.5 60h-1.5v-4h1.5c2.4852814 0 4.5-2.0147186 4.5-4.5s-2.0147186-4.5-4.5-4.5-4.5 2.0147186-4.5 4.5v1.5h-4v-1.5c0-2.4852814-2.0147186-4.5-4.5-4.5s-4.5 2.0147186-4.5 4.5 2.0147186 4.5 4.5 4.5h1.5v4h-1.5c-2.4852814 0-4.5 2.0147186-4.5 4.5s2.0147186 4.5 4.5 4.5 4.5-2.0147186 4.5-4.5v-1.5h4v1.5c0 2.4852814 2.0147186 4.5 4.5 4.5s4.5-2.0147186 4.5-4.5-2.0147186-4.5-4.5-4.5zm-1.5-8.5c0-.8284271.6715729-1.5 1.5-1.5s1.5.6715729 1.5 1.5-.6715729 1.5-1.5 1.5h-1.5zm-10 13c0 .8284271-.6715729 1.5-1.5 1.5s-1.5-.6715729-1.5-1.5.6715729-1.5 1.5-1.5h1.5zm0-11.5h-1.5c-.8284271 0-1.5-.6715729-1.5-1.5s.6715729-1.5 1.5-1.5 1.5.6715729 1.5 1.5zm7 7h-4v-4h4zm4.5 6c-.8280524-.0009039-1.4990961-.6719476-1.5-1.5v-1.5h1.5c.8284271 0 1.5.6715729 1.5 1.5s-.6715729 1.5-1.5 1.5z" fill="#949494"/><path d="m51.4395966 27.5573685c.2812211.2813739.6627304.4394609 1.060545.4394609.3978147 0 .779324-.158087 1.060545-.4394609l7-7c.3801343-.3786479.5290484-.9315141.3905198-1.4498635s-.5433968-.9232176-1.0617462-1.0617463c-.5183494-.1385286-1.0712157.0103856-1.4498636.3905198l-7 7c-.2813713.2812224-.4394567.6627312-.4394567 1.060545 0 .3978139.1580854.7793227.4394567 1.060545zm3.5 3.07764c-1.1749822 1.1749823-2.8875561 1.633865-4.4926116 1.2037917-1.6050556-.4300733-2.8587467-1.6837644-3.28882-3.28882-.4300734-1.6050556.0288094-3.3176294 1.2037916-4.4926117l3.28882-3.28882-2.1211-2.12109-3.28882 3.28882c-2.9878108 2.9878136-2.9878085 7.8320142.000005 10.819825 2.9878136 2.9878108 7.8320142 2.9878086 10.819825-.000005l3.28882-3.28881-2.1211-2.1211zm10.81933-17.39746c-2.989446-2.983398-7.829884-2.983398-10.81933 0l-3.28882 3.28882 2.12109 2.12109 3.28882-3.28882c1.1749822-1.1749822 2.8875561-1.633865 4.4926117-1.2037916 1.6050556.4300733 2.8587467 1.6837644 3.28882 3.28882.4300733 1.6050555-.0288095 3.3176294-1.2037917 4.4926116l-3.28885 3.28882 2.12109 2.12109 3.28882-3.28882c2.9830301-2.9898637 2.9828244-7.8302099-.00046-10.81982z" fill="#325ab1"/><path d="m65 46h-18c-1.1045558.0000331-1.9999669.8954442-2 2v20c.0000331 1.1045558.8954442 1.9999669 2 2h18c1.1045558-.0000331 1.9999669-.8954442 2-2v-20c-.0000331-1.1045558-.8954442-1.9999669-2-2zm-10 19h-5c-.5522847 0-1-.4477153-1-1s.4477153-1 1-1h5c.5522847 0 1 .4477153 1 1s-.4477153 1-1 1zm7-6h-12c-.5522847 0-1-.4477153-1-1s.4477153-1 1-1h12c.5522847 0 1 .4477153 1 1s-.4477153 1-1 1zm0-6h-12c-.5522847 0-1-.4477153-1-1s.4477153-1 1-1h12c.5522847 0 1 .4477153 1 1s-.4477153 1-1 1z" fill="#c03d3d"/></g></svg>

<?xml version="1.0" encoding="UTF-8"?>
<svg width="80px" height="80px" viewBox="0 0 80 80" version="1.1" xmlns="http://www.w3.org/2000/svg" xmlns:xlink="http://www.w3.org/1999/xlink">
    <!-- Generator: Sketch 49.2 (51160) - http://www.bohemiancoding.com/sketch -->
    <title>feature-actions</title>
    <desc>Created with Sketch.</desc>
    <defs></defs>
    <g id="feature-actions" stroke="none" stroke-width="1" fill="none" fill-rule="evenodd">
        <path d="M19.0004291,24.0000007 L20.5004291,24.0000007 C24.09028,24.0000007 27.0004291,21.0898516 27.0004291,17.5000007 C27.0004291,13.9101498 24.09028,11.0000007 20.5004291,11.0000007 L15.5004291,11.0000007 C12.2032064,10.9984591 9.42767151,13.4669947 9.04446809,16.7418742 C8.66126466,20.0167536 10.7919223,23.0593775 14.0004291,23.8190907 L14.0004291,27.0000007 L19.0004291,24.0000007 Z M28.7743591,19.4170007 C27.8797758,23.266493 24.4524952,25.9933458 20.5004291,26.0000007 L19.5544291,26.0000007 L15.6591591,28.3371607 C16.7438342,30.5762556 19.0124451,31.9988159 21.5004291,32.0000007 L23.0004291,32.0000007 L28.0004291,35.0000007 L28.0004291,31.8190907 C30.7841732,31.1616999 32.8096888,28.7598832 32.9878348,25.9051227 C33.1659808,23.0503621 31.4547784,20.4153625 28.7743591,19.4169907 L28.7743591,19.4170007 Z" id="chat-bubbles" fill="#74DA63" fill-rule="nonzero"></path>
        <path d="M28.5,60 L27,60 L27,56 L28.5,56 C30.9852814,56 33,53.9852814 33,51.5 C33,49.0147186 30.9852814,47 28.5,47 C26.0147186,47 24,49.0147186 24,51.5 L24,53 L20,53 L20,51.5 C20,49.0147186 17.9852814,47 15.5,47 C13.0147186,47 11,49.0147186 11,51.5 C11,53.9852814 13.0147186,56 15.5,56 L17,56 L17,60 L15.5,60 C13.0147186,60 11,62.0147186 11,64.5 C11,66.9852814 13.0147186,69 15.5,69 C17.9852814,69 20,66.9852814 20,64.5 L20,63 L24,63 L24,64.5 C24,66.9852814 26.0147186,69 28.5,69 C30.9852814,69 33,66.9852814 33,64.5 C33,62.0147186 30.9852814,60 28.5,60 Z M27,51.5 C27,50.6715729 27.6715729,50 28.5,50 C29.3284271,50 30,50.6715729 30,51.5 C30,52.3284271 29.3284271,53 28.5,53 L27,53 L27,51.5 Z M17,64.5 C17,65.3284271 16.3284271,66 15.5,66 C14.6715729,66 14,65.3284271 14,64.5 C14,63.6715729 14.6715729,63 15.5,63 L17,63 L17,64.5 Z M17,53 L15.5,53 C14.6715729,53 14,52.3284271 14,51.5 C14,50.6715729 14.6715729,50 15.5,50 C16.3284271,50 17,50.6715729 17,51.5 L17,53 Z M24,60 L20,60 L20,56 L24,56 L24,60 Z M28.5,66 C27.6719476,65.9990961 27.0009039,65.3280524 27,64.5 L27,63 L28.5,63 C29.3284271,63 30,63.6715729 30,64.5 C30,65.3284271 29.3284271,66 28.5,66 Z" id="command" fill="#949494" fill-rule="nonzero"></path>
        <path d="M51.4395966,27.5573685 C51.7208177,27.8387424 52.102327,27.9968294 52.5001416,27.9968294 C52.8979563,27.9968294 53.2794656,27.8387424 53.5606866,27.5573685 L60.5606866,20.5573685 C60.9408209,20.1787206 61.089735,19.6258544 60.9512064,19.107505 C60.8126778,18.5891556 60.4078096,18.1842874 59.8894602,18.0457587 C59.3711108,17.9072301 58.8182445,18.0561443 58.4395966,18.4362785 L51.4395966,25.4362785 C51.1582253,25.7175009 51.0001399,26.0990097 51.0001399,26.4968235 C51.0001399,26.8946374 51.1582253,27.2761462 51.4395966,27.5573685 Z M54.9395966,30.6350085 C53.7646144,31.8099908 52.0520405,32.2688735 50.446985,31.8388002 C48.8419294,31.4087269 47.5882383,30.1550358 47.158165,28.5499802 C46.7280916,26.9449246 47.1869744,25.2323508 48.3619566,24.0573685 L51.6507766,20.7685485 L49.5296766,18.6474585 L46.2408566,21.9362785 C43.2530458,24.9240921 43.2530481,29.7682927 46.2408616,32.7561035 C49.2286752,35.7439143 54.0728758,35.7439121 57.0606866,32.7560985 L60.3495066,29.4672885 L58.2284066,27.3461885 L54.9395966,30.6350085 Z M65.7589266,13.2375485 C62.7694806,10.2541505 57.9290426,10.2541505 54.9395966,13.2375485 L51.6507766,16.5263685 L53.7718666,18.6474585 L57.0606866,15.3586385 C58.2356688,14.1836563 59.9482427,13.7247735 61.5532983,14.1548469 C63.1583539,14.5849202 64.412045,15.8386113 64.8421183,17.4436669 C65.2721916,19.0487224 64.8133088,20.7612963 63.6383266,21.9362785 L60.3494766,25.2250985 L62.4705666,27.3461885 L65.7593866,24.0573685 C68.7424167,21.0675048 68.742211,16.2271586 65.7589266,13.2375485 Z" id="link" fill="#325AB1" fill-rule="nonzero"></path>
        <path d="M65,46 L47,46 C45.8954442,46.0000331 45.0000331,46.8954442 45,48 L45,68 C45.0000331,69.1045558 45.8954442,69.9999669 47,70 L65,70 C66.1045558,69.9999669 66.9999669,69.1045558 67,68 L67,48 C66.9999669,46.8954442 66.1045558,46.0000331 65,46 Z M55,65 L50,65 C49.4477153,65 49,64.5522847 49,64 C49,63.4477153 49.4477153,63 50,63 L55,63 C55.5522847,63 56,63.4477153 56,64 C56,64.5522847 55.5522847,65 55,65 Z M62,59 L50,59 C49.4477153,59 49,58.5522847 49,58 C49,57.4477153 49.4477153,57 50,57 L62,57 C62.5522847,57 63,57.4477153 63,58 C63,58.5522847 62.5522847,59 62,59 Z M62,53 L50,53 C49.4477153,53 49,52.5522847 49,52 C49,51.4477153 49.4477153,51 50,51 L62,51 C62.5522847,51 63,51.4477153 63,52 C63,52.5522847 62.5522847,53 62,53 Z" id="content" fill="#C03D3D" fill-rule="nonzero"></path>
    </g>
</svg>
